src/assets/svg/pdf.svg

<svg width="18" height="23" viewBox="0 0 18 23" fill="none" xmlns="http://www.w3.org/2000/svg">
<path d="M15 18V21H3V18H1.5V21C1.5 21.3978 1.65804 21.7794 1.93934 22.0607C2.22064 22.342 2.60218 22.5 3 22.5H15C15.3978 22.5 15.7794 22.342 16.0607 22.0607C16.342 21.7794 16.5 21.3978 16.5 21V18H15Z" fill="#E10303"/>
<path d="M12.75 15.75L11.6895 14.6895L9.75 16.629V10.5H8.25V16.629L6.3105 14.6895L5.25 15.75L9 19.5L12.75 15.75Z" fill="#E10303"/>
<path d="M18 2V0.5H13.5V8H15V5H17.25V3.5H15V2H18Z" fill="#E10303"/>
<path d="M9.75 8H6.75V0.5H9.75C10.3466 0.500596 10.9185 0.73784 11.3403 1.15967C11.7622 1.5815 11.9994 2.15345 12 2.75V5.75C11.9994 6.34655 11.7622 6.9185 11.3403 7.34033C10.9185 7.76216 10.3466 7.9994 9.75 8ZM8.25 6.5H9.75C9.94885 6.4998 10.1395 6.42072 10.2801 6.28011C10.4207 6.1395 10.4998 5.94885 10.5 5.75V2.75C10.4998 2.55115 10.4207 2.3605 10.2801 2.21989C10.1395 2.07928 9.94885 2.0002 9.75 2H8.25V6.5Z" fill="#E10303"/>
<path d="M3.75 0.5H0V8H1.5V5.75H3.75C4.14764 5.7494 4.52883 5.59118 4.81 5.31C5.09118 5.02883 5.2494 4.64764 5.25 4.25V2C5.2496 1.6023 5.09144 1.221 4.81022 0.939778C4.529 0.65856 4.1477 0.500397 3.75 0.5ZM1.5 4.25V2H3.75L3.75075 4.25H1.5Z" fill="#E10303"/>
</svg>

<svg width="18" height="23" fill="none" xmlns="http://www.w3.org/2000/svg">
  <path d="M15 18v3H3v-3H1.5v3A1.5 1.5 0 003 22.5h12a1.5 1.5 0 001.5-1.5v-3H15z" fill="#E10303" />
  <path
    d="M12.75 15.75l-1.06-1.06-1.94 1.939V10.5h-1.5v6.129l-1.94-1.94-1.06 1.061L9 19.5l3.75-3.75zM18 2V.5h-4.5V8H15V5h2.25V3.5H15V2h3zM9.75 8h-3V.5h3A2.252 2.252 0 0112 2.75v3A2.252 2.252 0 019.75 8zm-1.5-1.5h1.5a.75.75 0 00.75-.75v-3A.75.75 0 009.75 2h-1.5v4.5zM3.75.5H0V8h1.5V5.75h2.25a1.502 1.502 0 001.5-1.5V2A1.502 1.502 0 003.75.5zM1.5 4.25V2h2.25v2.25H1.5z"
    fill="#E10303" /></svg>
